X: 1313
T: An Léiriú Spáinneach
R: reel
M: 4/4
K: Ddorian
A,C|:"Dm" D2 EF GABc|d2 de fedA|"C" c2 Bc dBAG|"G" ^F2 DE FDAD|
"Dm" DCDE F2 FG|A2 d2 d2 dB|"C" cBAG ABAG|1 "G" ^F2 D2 D2 A,C:|2 "G" ^F2 D2 D4||
|:"Dm" a3 a3 ge|fgga gfed|"C" c2 B2 G2 cA|"G" BcdA edcB|
"Dm" A2 A2 D2 GE|FGGD AcBA|"C" c2 B2 G2 AB|1 "G" AG^FD D4:|2 "G" AG^FD D2 A,C||

